!!!OTL: Der Ritt durch den Wald.
!!!ARE: Europa, Mitteleuropa, Deutschland
!!!SCT: A0189
!!!TXL: @@GMH
!!!YEM: Copyright 1995, estate of Helmut Schaffrath.
**kern	**text
!! Mixed meters:  4/2; 6/2
*M4/2	*
*met(c|)	*
*clefC3	*
*k[b-]	*
*g:dor	*
=1	=1
!LO:TX:a:t=dor. tr.	!
1ryy	.
{1G	Jch
=2	=2
2B-	rit
2B-	ein-
2c/	-mal
2c/	ſpa-
=3	=3
*M6/2	*
1d	-cie-
1G}	-ren,
{1d	ſpa-
=4	=4
*lig	*
2.c	-cie-
4d	.
*Xlig	*
2e	-ren
1f	durch
2e	den
=5	=5
*M4/2	*
*lig	*
2.f	wald,
4e	.
2d	.
4c/	.
4B-/	.
=6	=6
0c	.
*Xlig	*
=7	=7
1r}	.
{1f	dar-
=8	=8
2f	-in
2d	da
2f	hört
2g	ich
=9	=9
*M6/2	*
*lig	*
2f	ſin-
2e	.
*Xlig	*
1d}	-gen
{1f	die
=10	=10
*M4/2	*
2e-	vög-
2d	-lein
2d	jung
2B-	und
=11	=11
1.c}	alt,
*lig	*
{2d	.
=12	=12
2.d	.
*Xlig	*
4c	.
2B-	.
*lig	*
4A	.
4G	.
*Xlig	*
=13	=13
0A;	.
=14	=14
1r}	.
{1A	die
=15	=15
2A	Troſ-
2A	-ſel
2d	vnd
2c	fraw
=16	=16
*lig	*
2B-	Nach-
4A	.
4G	.
2A	.
*Xlig	*
2A	-ti-
=17	=17
1B-	-gal;
2r}	.
{2f	ſie
=18	=18
!LO:TX:a:t=..	!
2f	ſungen
2d	von
2f	hel-
2g	-ler
=19	=19
*lig	*
2f	ſtim-
2e	.
*Xlig	*
1d}	-men,
=20	=20
{1f	daß
2e-	in
2d	dem
=21	=21
*lig	*
2d	wald
2B-}	.
*Xlig	*
{1c	er-
=22	=22
1.d	-hal.
4c/	.
4B-	.
=23	=23
2B-	.
4A	.
4G	.
1A	.
=24	=24
0G/ll}	.
==	==
!!!GTL: Liebeslieder
!!!AGN: Romanze, Ballade, Lied
!! 68 Lieder (c. 1542) No. 18.
!!!ONB: ESAC (Essen Associative Code) Database: ALTDEU
!!!AMT: irregular
!!!AIN: vox
!!!EED: Helmut Schaffrath
!!!EEV: 1.0
!!!RDF**kern: l = terminal long
!!!AMD: Dorian
!!!URL-scan: https://rosdok.uni-rostock.de/mcrviewer/recordIdentifier/rosdok_ppn738218359/iview2/phys_0347.iview2?x=-495.6391625615763&y=2319.5126065318473&scale=0.4629418472063854&rotation=0&layout=singlePageLayout&logicalDiv=log_0009
!!!ENC: Anna Maria Matuszewska
!!!EEV: 2024/07/03
*-	*-
